X:84
T: Kommt, ihr Brschchen (Band 1), S. 234
N: P0859
O: Lothringen
S: PINCK, Louis: Verklingende Weisen, Bd 1, Metz 1928]
R: Spottlied]
M: 2/4
L: 1/16
K: G
B3d | d2c2B2G2 | A4
B2d2 | c2e2ddF2 | G2z
GB2d2 | d2c2B2G2 | A2G2
B3d | d2c2B2G2 | A2D2
G3B | d2d2e2c2 | d4
c2A2 | B2G2B2A2 | G2z2

